X:1
T:Ode an die Freude
T:Ode an die Freude
T:Kaveh's Variation
T:Ludwig van Beethoven
C:Ludwig van Beethoven
%%score { 1 | 2 }
L:1/8
M:4/4
K:C
V:1 treble nm="Piano" snm="Pno."
V:2 bass 
V:1
!mf! E2 E2 F2 G2 | G2 F2 E2 D2 | C2 C2 D2 E2 | E3 D D4 | E2 E2 F2 G2 | G2 F2 E2 D2 | C2 C2 D2 E2 | %7
 D3 C C4 | D2 D2 E2 C2 | D2 EF E2 C2 | D2 EF E2 D2 | C2 D2 G,4 | E2 E2 F2 G2 | G2 F2 E2 D2 | %14
 C2 C2 D2 E2 | D3 C!f! C4 |] %16
V:2
 C,G,E,G, C,G,E,G, | G,,D,B,,D, G,,D,B,,D, | C,G,E,G, C,G,E,G, | G,,D,B,,D, G,,D,B,,D, | %4
 C,G,E,G, C,G,E,G, | G,,D,B,,D, G,,D,B,,D, | C,G,E,G, C,G,E,G, | G,,D,B,,D, C,G,E,G, | %8
 B,,G,D,G, C,G,E,G, | B,,G,D,G, C,G,E,G, | G,,D,B,,D, ^G,,D,B,,D, | A,,E,B,,D, G,,D,B,,D, | %12
 C,G,E,G, C,G,E,G, | G,,D,B,,D, G,,D,B,,D, | C,G,E,G, C,G,E,G, | G,,D,B,,D, [C,E,G,]4 |] %16

